apps/scalable/pidgin.svg

<svg xmlns="http://www.w3.org/2000/svg" style="isolation:isolate" width="256" height="256"><defs><filter id="a" width="270.648" height="254.338" x="-7.32" y="2.95" filterUnits="userSpaceOnUse"><feGaussianBlur xmlns="http://www.w3.org/2000/svg" in="SourceGraphic" stdDeviation="4.294"/><feOffset xmlns="http://www.w3.org/2000/svg" dy="4" result="pf_100_offsetBlur"/><feFlood xmlns="http://www.w3.org/2000/svg" flood-opacity=".4"/><feComposite xmlns="http://www.w3.org/2000/svg" in2="pf_100_offsetBlur" operator="in" result="pf_100_dropShadow"/><feBlend xmlns="http://www.w3.org/2000/svg" in="SourceGraphic" in2="pf_100_dropShadow"/></filter></defs><path fill="#7839B7" d="M165.685 11.947c74.055 0 84.639 10.557 84.639 84.544v59.251c0 73.986-10.584 84.543-84.639 84.543h-75.37c-74.055 0-84.639-10.557-84.639-84.543V96.491c0-73.987 10.584-84.544 84.639-84.544h75.37z" filter="url(#a)"/><g opacity=".4"><linearGradient id="b" x1=".517" x2=".517" y2="1"><stop offset="0%" stop-color="#fff"/><stop offset="12.5%" stop-opacity=".098" stop-color="#fff"/><stop offset="92.5%" stop-opacity=".098"/><stop offset="100%" stop-opacity=".498"/></linearGradient><path fill="none" stroke="url(#b)" stroke-linecap="round" stroke-linejoin="round" stroke-width="4.077" d="M165.685 11.947c74.055 0 84.639 10.557 84.639 84.544v59.251c0 73.986-10.584 84.543-84.639 84.543h-75.37c-74.055 0-84.639-10.557-84.639-84.543V96.491c0-73.987 10.584-84.544 84.639-84.544h75.37z" vector-effect="non-scaling-stroke"/></g><path fill="#FFF" d="M94.667 96.764c0 21.029-19.907 35.333-33.334 35.333-18.4 0-33.333-17.067-33.333-38.095 0-18.275 10.237-38.096 28.637-38.096s38.03 24.245 38.03 40.858z"/><ellipse fill="#7839B7" rx="1" ry="1" transform="translate(61.333 98.764) scale(14.286)" vector-effect="non-scaling-stroke"/><ellipse rx="1" ry="1" transform="translate(61.333 98.763) scale(4.762)" vector-effect="non-scaling-stroke"/><path fill="#FFF" d="M220.703 73.191c-10.444-11.694-27.436-8.579-34.105-1.112-9.139 10.232-8.079 28.028 2.365 39.722 9.077 10.162 24.006 15.492 33.145 5.26 9.139-10.232 6.847-34.631-1.405-43.87z"/><ellipse fill="#7839B7" rx="1" ry="1" transform="translate(204.19 98.763) scale(14.286)" vector-effect="non-scaling-stroke"/><ellipse rx="1" ry="1" transform="translate(204.191 98.763) scale(4.762)" vector-effect="non-scaling-stroke"/><path d="M142.286 141.621c15.769 0 28.571 4.267 28.571 9.523 0 5.257-12.802 9.524-28.571 9.524-15.769 0-28.572-4.267-28.572-9.524 0-5.256 12.803-9.523 28.572-9.523z" fill="#eeeeec"/><path fill="#F9751A" d="M76.12 158.673c50.79 27.642 57.636-25.246 67.247-25.246 9.479 0 13.373 53.115 56.563 25.275-9.073 16.098-36.961 41.392-48.718 41.392-11.889 0-60.347-17.643-75.092-41.421z"/><linearGradient id="c" x1="-.062" x2=".593" y1=".118" y2=".41" gradientTransform="matrix(123.81 0 0 66.667 76.12 133.427)" gradientUnits="userSpaceOnUse"><stop offset="0%" stop-color="#fff"/><stop offset="100%" stop-opacity="0" stop-color="#fff"/></linearGradient><path fill="url(#c)" d="M76.12 158.673c50.79 27.642 57.636-25.246 67.247-25.246 9.479 0 13.373 53.115 56.563 25.275-9.073 16.098-36.961 41.392-48.718 41.392-11.889 0-60.347-17.643-75.092-41.421z"/></svg>

<svg xmlns="http://www.w3.org/2000/svg" style="isolation:isolate" width="256" height="256" viewBox="0 0 256 256">
 <defs>
  <filter id="d6JdMxKfqX30WhV6EzdQqkY391zoCyOE" width="270.648" height="254.338" x="-7.32" y="2.95" filterUnits="userSpaceOnUse">
   <feGaussianBlur xmlns="http://www.w3.org/2000/svg" in="SourceGraphic" stdDeviation="4.294"/>
   <feOffset xmlns="http://www.w3.org/2000/svg" dx="0" dy="4" result="pf_100_offsetBlur"/>
   <feFlood xmlns="http://www.w3.org/2000/svg" flood-opacity=".4"/>
   <feComposite xmlns="http://www.w3.org/2000/svg" in2="pf_100_offsetBlur" operator="in" result="pf_100_dropShadow"/>
   <feBlend xmlns="http://www.w3.org/2000/svg" in="SourceGraphic" in2="pf_100_dropShadow" mode="normal"/>
  </filter>
 </defs>
 <g filter="url(#d6JdMxKfqX30WhV6EzdQqkY391zoCyOE)">
  <path fill="#7839B7" d="M 165.685 11.947 C 239.74 11.947 250.324 22.504 250.324 96.491 L 250.324 155.742 C 250.324 229.728 239.74 240.285 165.685 240.285 L 90.315 240.285 C 16.26 240.285 5.676 229.728 5.676 155.742 L 5.676 96.491 C 5.676 22.504 16.26 11.947 90.315 11.947 L 165.685 11.947 Z"/>
 </g>
 <g opacity=".4">
  <linearGradient id="_lgradient_61" x1=".517" x2=".517" y1="0" y2="1">
   <stop offset="0%" style="stop-color:rgb(255,255,255)"/>
   <stop offset="12.5%" stop-opacity=".098" style="stop-color:rgb(255,255,255)"/>
   <stop offset="92.5%" stop-opacity=".098" style="stop-color:rgb(0,0,0)"/>
   <stop offset="100%" stop-opacity=".498" style="stop-color:rgb(0,0,0)"/>
  </linearGradient>
  <path fill="none" stroke="url(#_lgradient_61)" stroke-linecap="round" stroke-linejoin="round" stroke-width="4.077" d="M 165.685 11.947 C 239.74 11.947 250.324 22.504 250.324 96.491 L 250.324 155.742 C 250.324 229.728 239.74 240.285 165.685 240.285 L 90.315 240.285 C 16.26 240.285 5.676 229.728 5.676 155.742 L 5.676 96.491 C 5.676 22.504 16.26 11.947 90.315 11.947 L 165.685 11.947 Z" vector-effect="non-scaling-stroke"/>
 </g>
 <g>
  <g>
   <path fill="#FFFFFF" d="M 94.667 96.764 C 94.667 117.793 74.76 132.097 61.333 132.097 C 42.933 132.097 28 115.03 28 94.002 C 28 75.727 38.237 55.906 56.637 55.906 C 75.037 55.906 94.667 80.151 94.667 96.764 Z"/>
   <ellipse fill="#7839B7" cx="0" cy="0" rx="1" ry="1" transform="matrix(14.286,0,0,14.286,61.333,98.764)" vector-effect="non-scaling-stroke"/>
   <ellipse cx="0" cy="0" rx="1" ry="1" transform="matrix(4.762,0,0,4.762,61.333,98.763)" vector-effect="non-scaling-stroke"/>
  </g>
  <g>
   <path fill="#FFFFFF" d="M 220.703 73.191 C 210.259 61.497 193.267 64.612 186.598 72.079 C 177.459 82.311 178.519 100.107 188.963 111.801 C 198.04 121.963 212.969 127.293 222.108 117.061 C 231.247 106.829 228.955 82.43 220.703 73.191 Z"/>
   <ellipse fill="#7839B7" cx="0" cy="0" rx="1" ry="1" transform="matrix(14.286,0,0,14.286,204.19,98.763)" vector-effect="non-scaling-stroke"/>
   <ellipse cx="0" cy="0" rx="1" ry="1" transform="matrix(4.762,0,0,4.762,204.191,98.763)" vector-effect="non-scaling-stroke"/>
  </g>
  <path d="M 142.286 141.621 L 142.286 141.621 C 158.055 141.621 170.857 145.888 170.857 151.144 L 170.857 151.144 C 170.857 156.401 158.055 160.668 142.286 160.668 L 142.286 160.668 C 126.517 160.668 113.714 156.401 113.714 151.144 L 113.714 151.144 C 113.714 145.888 126.517 141.621 142.286 141.621 Z" style="fill:#EEEEEC"/>
  <path fill="#F9751A" d="M 76.12 158.673 C 126.91 186.315 133.756 133.427 143.367 133.427 C 152.846 133.427 156.74 186.542 199.93 158.702 C 190.857 174.8 162.969 200.094 151.212 200.094 C 139.323 200.094 90.865 182.451 76.12 158.673 L 76.12 158.673 Z"/>
  <linearGradient id="_lgradient_62" x1="-.062" x2=".593" y1=".118" y2=".41" gradientTransform="matrix(123.81,0,0,66.667,76.12,133.427)" gradientUnits="userSpaceOnUse">
   <stop offset="0%" style="stop-color:rgb(255,255,255)"/>
   <stop offset="100%" stop-opacity="0" style="stop-color:rgb(255,255,255)"/>
  </linearGradient>
  <path fill="url(#_lgradient_62)" d="M 76.12 158.673 C 126.91 186.315 133.756 133.427 143.367 133.427 C 152.846 133.427 156.74 186.542 199.93 158.702 C 190.857 174.8 162.969 200.094 151.212 200.094 C 139.323 200.094 90.865 182.451 76.12 158.673 L 76.12 158.673 Z"/>
 </g>
</svg>
